X:1
T:Tae ab' ea a Theastaionn is Tu Tinn?  "arr. Kent Hiestand"
M:6/8
L:1/8
Q:80
C:When Sick is it Tea You Want?
S:Jig
K:HP
{g}Ad{G}d{g}dcB | \
{g}ABA{g}AGA | \
{g}Ad{G}d{g}cde |
{g}fdB{gBd}B3 | \
{g}Ad{G}d{g}fdB | \
{g}ABA{g}AGA |
{g}d{G}d{c}d{g}efg | \
fd{G}d{gdG}d3 :: \
afe{g}dcd |
{g}BG{d}G{g}Gfg | \
age{A}ede | \
{g}cA{d}A{gAGAG}A2B{g}Ad{G}d{g}fdB |
{g}ABA{g}AGA | \
{g}dfd{g}efg | \
fd{G}d{gdG}d3 :|
